images/specialty.svg

<?xml version="1.0" encoding="UTF-8"?>
<svg width="68px" height="91px" viewBox="0 0 68 91" version="1.1" xmlns="http://www.w3.org/2000/svg" xmlns:xlink="http://www.w3.org/1999/xlink">
    <!-- Generator: Sketch 63.1 (92452) - https://sketch.com -->
    <title>award</title>
    <desc>Created with Sketch.</desc>
    <g id="Page-1" stroke="none" stroke-width="1" fill="none" fill-rule="evenodd">
        <g id="Home-v2" transform="translate(-77.000000, -1468.000000)" fill="#0EAD69" fill-rule="nonzero">
            <g id="award" transform="translate(77.000000, 1468.000000)">
                <path d="M17.1985062,64.4519662 C15.6596679,62.9074852 16.4618471,63.3429258 12.7502187,62.3458558 C11.0661735,61.8926422 9.58577205,61.0217611 8.24703583,59.9784811 L0.212847663,79.7492593 C-0.564540172,81.6634204 0.88752822,83.7428712 2.94521538,83.6646696 L12.2756402,83.3074306 L18.6930742,90.110967 C20.1097263,91.6110153 22.5959507,91.1435832 23.3733385,89.2294221 L32.5904312,66.5474128 C30.6708676,67.620907 28.540577,68.2500742 26.337683,68.2500742 C22.8845935,68.2500742 19.6404603,66.9010971 17.1985062,64.4519662 Z M67.7871523,79.7492593 L59.7529642,59.9784811 C58.4142279,61.0235384 56.9338265,61.8926422 55.2497813,62.3458558 C51.5186739,63.3482577 52.3367905,62.9110398 50.8014938,64.4519662 C48.3595397,66.9010971 45.1136356,68.2500742 41.6605462,68.2500742 C39.4576522,68.2500742 37.3273616,67.6191297 35.407798,66.5474128 L44.6248907,89.2294221 C45.4022785,91.1435832 47.8902737,91.6110153 49.305155,90.110967 L55.7243598,83.3074306 L65.0547846,83.6646696 C67.1124718,83.7428712 68.5645402,81.6616431 67.7871523,79.7492593 L67.7871523,79.7492593 Z M46.5727873,60.4299174 C49.2785928,57.6662029 49.5884854,57.9043622 53.4417791,56.8504183 C55.9014413,56.1768185 57.8245465,54.2128927 58.4832897,51.6997787 C59.8078594,46.652223 59.4643213,47.2618397 63.078555,43.5685929 C64.8794739,41.7290788 65.5824875,39.0471205 64.9237443,36.5340064 C63.6009454,31.4900053 63.5991746,32.1938194 64.9237443,27.1444864 C65.5824875,24.6313723 64.8794739,21.949414 63.078555,20.1098999 C59.4643213,16.4166531 59.8078594,17.0244926 58.4832897,11.9787141 C57.8245465,9.46560009 55.9014413,7.50167435 53.4417791,6.82807448 C48.5047466,5.47554282 49.0997405,5.82922718 45.4819652,2.1342031 C43.6810462,0.294688945 41.0549274,-0.425120941 38.5952652,0.248478928 C33.6600035,1.59923328 34.3488506,1.60101059 29.4047348,0.248478928 C26.9450726,-0.425120941 24.3189538,0.292911637 22.5180348,2.1342031 C18.9038012,5.82744988 19.498795,5.47554282 14.5599917,6.82807448 C12.1003295,7.50167435 10.1772243,9.46560009 9.51848108,11.9787141 C8.19568219,17.0244926 8.5374495,16.4166531 4.92321586,20.1098999 C3.12229689,21.949414 2.41751248,24.6313723 3.07802651,27.1444864 C4.4008254,32.1849329 4.40259622,31.4811188 3.07802651,36.5322291 C2.41928329,39.0453432 3.12229689,41.7273015 4.92321586,43.5685929 C8.5374495,47.2618397 8.19391137,46.652223 9.51848108,51.6997787 C10.1772243,54.2128927 12.1003295,56.1768185 14.5599917,56.8504183 C18.5230759,57.9345764 18.818802,57.7639548 21.4272127,60.4299174 C23.7700011,62.8239517 27.419651,63.2522831 30.2352471,61.4643108 C32.5336473,59.9998184 35.4681235,59.9998184 37.7665237,61.4643108 C40.580349,63.2522831 44.2299989,62.8239517 46.5727873,60.4299174 Z M17.2941302,31.274951 C17.2941302,21.8498848 24.7740533,14.2092361 34,14.2092361 C43.2259467,14.2092361 50.7058698,21.8498848 50.7058698,31.274951 C50.7058698,40.7000172 43.2259467,48.3406659 34,48.3406659 C24.7740533,48.3406659 17.2941302,40.7000172 17.2941302,31.274951 L17.2941302,31.274951 Z" id="Shape"></path>
            </g>
        </g>
    </g>
</svg>

<svg width="68" height="91" xmlns="http://www.w3.org/2000/svg"><path d="M17.199 64.452c-1.54-1.545-.737-1.11-4.449-2.106-1.684-.453-3.164-1.324-4.503-2.368L.213 79.75c-.778 1.914.675 3.994 2.732 3.916l9.33-.358 6.418 6.804c1.417 1.5 3.903 1.033 4.68-.882l9.217-22.682c-1.92 1.074-4.05 1.703-6.252 1.703a12.82 12.82 0 01-9.14-3.798zm50.588 15.297l-8.034-19.77c-1.339 1.045-2.82 1.914-4.503 2.367-3.731 1.002-2.913.565-4.449 2.106a12.823 12.823 0 01-9.14 3.798c-2.203 0-4.334-.63-6.253-1.703l9.217 22.682c.777 1.915 3.265 2.382 4.68.882l6.42-6.804 9.33.358c2.057.078 3.51-2.003 2.732-3.916zM46.573 60.43c2.706-2.763 3.015-2.525 6.869-3.579 2.46-.673 4.383-2.637 5.041-5.15 1.325-5.048.981-4.438 4.596-8.131 1.8-1.84 2.503-4.522 1.845-7.035-1.323-5.044-1.325-4.34 0-9.39.658-2.513-.045-5.195-1.845-7.034-3.615-3.693-3.271-3.086-4.596-8.131-.658-2.513-2.582-4.477-5.041-5.15-4.937-1.353-4.342-1-7.96-4.695A7.029 7.029 0 0038.595.248c-4.935 1.351-4.246 1.353-9.19 0a7.025 7.025 0 00-6.887 1.886c-3.614 3.693-3.02 3.342-7.958 4.694-2.46.674-4.383 2.638-5.042 5.15-1.322 5.046-.98 4.439-4.595 8.132a7.387 7.387 0 00-1.845 7.034c1.323 5.04 1.325 4.337 0 9.388a7.396 7.396 0 001.845 7.037c3.614 3.693 3.27 3.083 4.595 8.13.66 2.514 2.582 4.478 5.042 5.151 3.963 1.085 4.259.914 6.867 3.58a7.019 7.019 0 008.808 1.034 7.004 7.004 0 017.532 0 7.016 7.016 0 008.806-1.034zM17.294 31.276c0-9.425 7.48-17.066 16.706-17.066 9.226 0 16.706 7.64 16.706 17.066 0 9.425-7.48 17.066-16.706 17.066-9.226 0-16.706-7.641-16.706-17.066z" fill="#0EAD69"/></svg>
